X: 1
T: Rebop The Bebop
R: reel
M: 4/4
L: 1/8
K: Dmaj
"D"f3e dA A/A/A|"G"BAdc "D"BA A/A/A|"G"BAdB "D/F#"Ad d/d/d|"Em"edgf "A"eAde|
"D"f2 f>e dA A/A/A|"G"BAdc "D"BA A/A/A|"G"BAdB "D"Ad d/d/d|"A"edfe "D"d4:|
|:"D"faaf gfed|"G"eff>e "D"dA A/A/A|"G"BAdB "D/F#"Ad d/d/d|"Em"edgf "A"eAde|
[1 "D"faaf gfed|"G"eff>e "D"dA A/A/A|"G"BAdB "D"Ad d/d/d|"A"edfe "D"d4:|
[2 "D"faea daca|"G"BAdc "D"BA A/A/A|"G"BAdB "D"Ad d/d/d|"A"edfe "D"d4||
|:"D"fadf BdAd|"G"BdGd "D"BA A/A/A|"G"BdGB "D/F#"Ad d/d/d|"Em"edgf "A"eAde|
"D"fadf BdAd|"G"BdGd "D"BA A/A/A|"G"BdGB "D"Ad d/d/d|"A"edfe "D"d4:|
"D"LfAdLa AdLfA|"D"dLaAd BA A/A/A|"G"LgBdLa BdLgB|"G"dLfBd "A"eAde|
"D"LfAdLa AdLgA|"D"dLfAd BA A/A/A|"G"BAdB "D"Ad d/d/d|"A"edfe "D"d4|
"D"LaAdLg AdLfA|"D"dLeAd fAda|"G"LgBdLa BdLgB|"G"dLfBd "A"eAde|
"D"a/a/a ga faea|"D"d/a/a ca BA A/A/A|"G"BAdB "D"Ad d/d/d|"A"edfe "D"d4||

